images/logo_place_header.svg

<svg width="183" height="32" viewBox="0 0 183 32" fill="none" xmlns="http://www.w3.org/2000/svg">
<path fill-rule="evenodd" clip-rule="evenodd" d="M9.39872 4.6092H7.9974C5.87824 4.6092 3.82783 5.9603 3.82783 9.87848C3.82783 13.6648 5.70839 14.8841 7.9974 14.8841H9.39872V4.6092ZM7.21182 16.992L3.04124 26.0147H0L4.58006 16.3659C2.42652 15.3114 0.990829 13.4023 0.990829 9.87848C0.990829 4.93874 4.23832 2.46832 8.10053 2.46832H12.0315V26.0147H9.39872V16.992H7.21182ZM59.4801 17.6665C59.4801 12.3621 61.4526 8.97225 65.2693 8.97225C66.7252 8.97225 67.5644 9.37539 68.2762 9.84552L67.9203 12.328C67.2419 11.7239 66.2713 11.1538 65.237 11.1538C63.4252 11.1538 62.132 13.2683 62.132 17.5314C62.132 21.7604 63.1026 24.177 65.1399 24.177C66.3683 24.177 67.3066 23.6739 67.8879 23.1368L68.4703 25.0843C67.5978 25.8565 66.5625 26.3585 65.0752 26.3585C61.582 26.3585 59.4801 23.4389 59.4801 17.6665ZM52.1065 17.6994V26.1246H49.5819V9.20732H52.1055V17.0283L56.0182 9.20732H58.5731L54.5299 17.1623L59.1555 26.1246H56.4055L52.1055 17.6994H52.1065ZM40.2367 16.1221H44.4083C44.4083 13.2353 43.9554 11.1208 42.5005 11.1208C40.9475 11.1208 40.3975 13.1013 40.2357 16.1221H40.2367ZM43.0171 26.3596C39.6544 26.3596 37.5848 23.5729 37.5848 18.3706C37.5848 12.9333 39.0407 8.97225 42.5005 8.97225C45.2172 8.97225 46.9956 11.0868 46.9956 16.8262V18.2695H40.2044C40.2044 22.0965 41.2387 24.1111 43.2446 24.1111C44.6672 24.1111 45.7995 23.4389 46.4466 22.9687L47.028 24.9833C45.9937 25.8225 44.6348 26.3596 43.0181 26.3596H43.0171ZM32.2798 11.3218H29.467V11.6239C29.467 15.1818 29.3053 20.3852 27.9464 23.976H32.2808V11.3218H32.2798ZM36.0641 29.4474H33.8004V26.1246H26.814V29.4474H24.5513V23.9771H25.5533C27.0415 20.3852 27.2033 15.1488 27.2033 10.6507V9.20732H34.771V23.976H36.0652V29.4474H36.0641ZM23.0954 9.20732V26.1235H20.6052V18.5387H16.8542V26.1246H14.3306V9.20732H16.8542V16.3912H20.6052V9.20732H23.0954ZM86.5357 2.09485H79.5019V26.185H77.8508V0.629517H88.1878V26.185H86.5357V2.09595V2.09485ZM96.5421 25.1843C97.5997 25.1843 98.4469 24.5 99.0859 23.1302C99.7239 21.7593 100.043 19.6448 100.043 16.7855C100.043 14.4019 99.7684 12.5565 99.2173 11.2449C98.6673 9.9345 97.908 9.27872 96.9384 9.27872C96.5643 9.27872 96.2064 9.38088 95.8657 9.58299C95.511 9.79688 95.1881 10.068 94.9082 10.3871C94.611 10.721 94.341 11.1076 94.0994 11.5492C93.8574 11.9891 93.6475 12.449 93.4715 12.9245V23.0039C93.8011 23.7431 94.2096 24.2913 94.6929 24.6483C95.1782 25.0052 95.7949 25.1843 96.5431 25.1843H96.5421ZM96.443 26.5068C95.8402 26.5158 95.2448 26.3622 94.7101 26.0598C94.2243 25.7909 93.8008 25.4059 93.4715 24.9338V31.7607H91.9196V8.17148H93.2734L93.4048 11.1373C93.7789 10.2805 94.2743 9.51159 94.8911 8.83275C95.5078 8.15281 96.2782 7.81339 97.2033 7.81339C97.8858 7.81339 98.5015 8.02868 99.0525 8.45708C99.6025 8.88548 100.066 9.48743 100.44 10.2618C100.814 11.0362 101.1 11.9655 101.298 13.0497C101.496 14.1339 101.595 15.3312 101.595 16.6416C101.595 19.9546 101.122 22.4261 100.175 24.0584C99.2285 25.6907 97.9849 26.5079 96.444 26.5079L96.443 26.5068ZM107.838 25.1843C108.607 25.1843 109.263 24.8394 109.802 24.1485C110.341 23.4564 110.765 22.6227 111.073 21.6462V16.6779H109.289C107.903 16.6779 106.879 17.0349 106.219 17.75C105.559 18.464 105.228 19.6086 105.228 21.1815C105.228 22.4678 105.465 23.4564 105.938 24.1474C106.411 24.8394 107.044 25.1843 107.837 25.1843H107.838ZM111.536 26.185C111.455 25.8838 111.383 25.5797 111.321 25.2733C111.227 24.7725 111.166 24.2653 111.139 23.7552C110.743 24.612 110.248 25.2919 109.652 25.7917C109.059 26.2926 108.343 26.5431 107.507 26.5431C106.385 26.5431 105.47 26.0839 104.766 25.1667C104.061 24.2495 103.708 22.9687 103.708 21.3243C103.708 19.3944 104.183 17.9345 105.129 16.9459C106.075 15.9573 107.451 15.463 109.257 15.463H111.073V13.2112C111.073 11.8282 110.842 10.8275 110.379 10.208C109.917 9.58848 109.224 9.27872 108.3 9.27872C107.595 9.27872 106.935 9.45228 106.318 9.79719C105.701 10.1432 105.196 10.6254 104.798 11.2449L104.37 9.63682C104.699 9.16009 105.201 8.73609 105.872 8.36811C106.543 7.99793 107.352 7.81339 108.299 7.81339C109.686 7.81339 110.748 8.23629 111.486 9.0821C112.224 9.92791 112.593 11.2449 112.593 13.0321V22.8611C112.593 23.4806 112.625 24.1067 112.692 24.7372C112.757 25.3688 112.845 25.8522 112.955 26.185H111.536ZM117.711 26.185H116.158V8.17038H117.711V16.6416L123.292 8.17148H124.811L119.329 16.5351L125.207 26.185H123.491L117.711 16.8569V26.185ZM131.152 9.56542V26.185H129.599V9.56542H125.736V8.17038H134.983V9.56542H131.151H131.152ZM145.121 13.6407C145.121 13.1628 145.132 12.729 145.154 12.3346C145.177 11.9425 145.209 11.5547 145.253 11.1735H145.154C145.047 11.5701 144.915 11.958 144.758 12.3346C144.596 12.7234 144.431 13.1108 144.263 13.4968L138.846 26.185H137.526V8.17038H138.979V20.6817C138.983 21.5297 138.939 22.3771 138.847 23.2192H138.946C139.056 22.8127 139.188 22.414 139.342 22.0219C139.497 21.6286 139.661 21.2288 139.837 20.8245L145.253 8.17038H146.607V26.185H145.121V13.6407ZM151.891 26.185H150.339V8.17038H151.891V16.6416L157.472 8.17148H158.992L153.51 16.5351L159.388 26.185H157.67L151.891 16.8569V26.185ZM161.633 31.9035C161.458 31.9035 161.298 31.898 161.154 31.8859C161.027 31.8762 160.9 31.8582 160.775 31.8321L160.609 30.2602C160.741 30.3075 160.89 30.3437 161.055 30.3668C161.221 30.391 161.413 30.403 161.633 30.403C162.206 30.403 162.69 30.1229 163.086 29.5627C163.483 29.0025 163.802 28.2226 164.044 27.2219L164.175 26.6859L160.048 8.17148H161.6L164.242 19.9304C164.397 20.6224 164.528 21.3002 164.638 21.968C164.75 22.6348 164.848 23.3136 164.936 24.0046H165.035C165.145 23.2906 165.266 22.5985 165.399 21.9318C165.53 21.265 165.674 20.5972 165.827 19.9304L168.403 8.17148H169.791L165.529 27.1132C165.398 27.7327 165.226 28.3292 165.017 28.9004C164.823 29.4427 164.562 29.9538 164.241 30.4195C163.944 30.8492 163.574 31.2131 163.151 31.4916C162.734 31.7662 162.227 31.9024 161.632 31.9024L161.633 31.9035ZM174.15 13.4605C174.018 12.9849 173.918 12.5378 173.852 12.1204C173.786 11.703 173.698 11.2691 173.588 10.8166H173.457C173.5 11.2922 173.539 11.7755 173.572 12.2632C173.604 12.752 173.622 13.3177 173.622 13.9614V26.185H172.3V8.17038H174.117L177.023 19.1802C177.199 19.8228 177.32 20.3709 177.387 20.8234C177.452 21.2771 177.507 21.7418 177.551 22.2185H177.683C177.727 21.7418 177.788 21.2771 177.865 20.8234C177.942 20.3709 178.068 19.8239 178.244 19.1802L181.216 8.17148H183V26.1861H181.514V13.9603C181.508 12.8982 181.552 11.8365 181.645 10.7792H181.514C181.426 11.2801 181.343 11.7447 181.266 12.1731C181.189 12.6015 181.095 13.031 180.986 13.4594L178.212 24.0397H176.924L174.149 13.4594L174.15 13.4605Z" fill="black"/>
</svg>

<svg width="183" height="32" fill="none" xmlns="http://www.w3.org/2000/svg"><path fill-rule="evenodd" clip-rule="evenodd" d="M9.399 4.61H7.997c-2.119 0-4.17 1.35-4.17 5.268 0 3.787 1.881 5.006 4.17 5.006H9.4V4.61zM7.212 16.991l-4.17 9.023H0l4.58-9.65C2.427 15.312.99 13.403.99 9.879c0-4.94 3.248-7.41 7.11-7.41h3.931v23.547H9.4v-9.023H7.212zm52.268.674c0-5.304 1.973-8.694 5.79-8.694 1.455 0 2.294.403 3.006.874l-.356 2.482c-.678-.604-1.649-1.174-2.683-1.174-1.812 0-3.105 2.114-3.105 6.377 0 4.23.97 6.646 3.008 6.646 1.228 0 2.167-.503 2.748-1.04l.582 1.947c-.872.773-1.907 1.274-3.395 1.274-3.493 0-5.595-2.92-5.595-8.692zm-7.373.033v8.426h-2.525V9.207h2.523v7.821l3.913-7.82h2.555l-4.043 7.954 4.626 8.963h-2.75l-4.3-8.426zm-11.87-1.577h4.171c0-2.887-.453-5.001-1.907-5.001-1.553 0-2.103 1.98-2.265 5.001zm2.78 10.238c-3.363 0-5.432-2.787-5.432-7.99 0-5.437 1.456-9.398 4.916-9.398 2.716 0 4.495 2.115 4.495 7.854v1.444h-6.792c0 3.826 1.035 5.841 3.04 5.841 1.423 0 2.556-.672 3.203-1.142l.581 2.014c-1.034.84-2.393 1.377-4.01 1.377zM32.28 11.322h-2.813v.302c0 3.558-.162 8.761-1.52 12.352h4.334V11.322h-.001zm3.784 18.125H33.8v-3.322h-6.986v3.322h-2.263v-5.47h1.002c1.488-3.592 1.65-8.828 1.65-13.326V9.207h7.568v14.769h1.294v5.471zM23.095 9.207v16.916h-2.49V18.54h-3.75v7.586H14.33V9.207h2.523v7.184h3.751V9.207h2.49zm63.44-7.112h-7.033v24.09H77.85V.63h10.337v25.555h-1.652V2.095zm10.007 23.09c1.058 0 1.905-.685 2.544-2.055.638-1.37.957-3.485.957-6.345 0-2.383-.275-4.229-.826-5.54-.55-1.31-1.309-1.966-2.279-1.966a2.07 2.07 0 00-1.072.304 4.074 4.074 0 00-.958.804 6.25 6.25 0 00-.809 1.162c-.242.44-.452.9-.627 1.376v10.079c.33.74.738 1.287 1.22 1.644.486.357 1.103.536 1.851.536zm-.099 1.322a3.411 3.411 0 01-1.733-.447 3.701 3.701 0 01-1.238-1.126v6.827H91.92V8.17h1.353l.132 2.966a8.4 8.4 0 011.486-2.304c.617-.68 1.387-1.02 2.312-1.02.683 0 1.298.216 1.85.644.55.428 1.013 1.03 1.387 1.805.374.774.66 1.704.858 2.788.198 1.084.297 2.281.297 3.592 0 3.313-.473 5.784-1.42 7.416-.947 1.633-2.19 2.45-3.731 2.45l-.001-.001zm11.395-1.323c.769 0 1.425-.345 1.964-1.036.539-.692.963-1.525 1.271-2.502v-4.968h-1.784c-1.386 0-2.41.357-3.07 1.072-.66.714-.991 1.859-.991 3.431 0 1.287.237 2.275.71 2.966.473.692 1.106 1.037 1.899 1.037h.001zm3.698 1.001a14.86 14.86 0 01-.215-.912 11.52 11.52 0 01-.182-1.518c-.396.857-.891 1.537-1.487 2.037-.593.5-1.309.751-2.145.751-1.122 0-2.037-.46-2.741-1.376-.705-.918-1.058-2.198-1.058-3.843 0-1.93.475-3.39 1.421-4.378.946-.989 2.322-1.483 4.128-1.483h1.816v-2.252c0-1.383-.231-2.383-.694-3.003-.462-.62-1.155-.93-2.079-.93-.705 0-1.365.174-1.982.52a4.273 4.273 0 00-1.52 1.447l-.428-1.608c.329-.477.831-.9 1.502-1.269.671-.37 1.48-.555 2.427-.555 1.387 0 2.449.423 3.187 1.27.738.845 1.107 2.162 1.107 3.95v9.828c0 .62.032 1.246.099 1.876.065.632.153 1.115.263 1.448h-1.419zm6.175 0h-1.553V8.17h1.553v8.472l5.581-8.47h1.519l-5.482 8.363 5.878 9.65h-1.716l-5.78-9.328v9.328zm13.441-16.62v16.62h-1.553V9.565h-3.863V8.17h9.247v1.395h-3.832.001zm13.969 4.076a20.72 20.72 0 01.132-2.467h-.099a9.338 9.338 0 01-.396 1.16c-.162.39-.327.777-.495 1.163l-5.417 12.688h-1.32V8.17h1.453v12.512c.004.848-.04 1.695-.132 2.537h.099c.11-.406.242-.805.396-1.197.155-.393.319-.793.495-1.197l5.416-12.655h1.354v18.015h-1.486V13.641zm6.77 12.544h-1.552V8.17h1.552v8.472l5.581-8.47h1.52l-5.482 8.363 5.878 9.65h-1.718l-5.779-9.328v9.328zm9.742 5.719a5.81 5.81 0 01-.479-.018 2.96 2.96 0 01-.379-.054l-.166-1.572c.132.047.281.084.446.107.166.024.358.036.578.036.573 0 1.057-.28 1.453-.84.397-.56.716-1.34.958-2.341l.131-.536-4.127-18.515h1.552l2.642 11.76c.155.691.286 1.37.396 2.037a51.9 51.9 0 01.298 2.037h.099c.11-.714.231-1.406.364-2.073.131-.667.275-1.335.428-2.002l2.576-11.759h1.388l-4.262 18.942c-.131.62-.303 1.216-.512 1.787a6.584 6.584 0 01-.776 1.52c-.297.43-.667.793-1.09 1.072-.417.274-.924.41-1.519.41l.001.002zM174.15 13.46a12.121 12.121 0 01-.298-1.34 16.31 16.31 0 00-.264-1.303h-.131c.043.475.082.958.115 1.446.032.489.05 1.055.05 1.698v12.224H172.3V8.17h1.817l2.906 11.01c.176.643.297 1.19.364 1.643.065.454.12.919.164 1.395h.132c.044-.476.105-.94.182-1.395.077-.452.203-1 .379-1.643l2.972-11.009H183v18.015h-1.486V13.96a34.11 34.11 0 01.131-3.18h-.131c-.088.5-.171.965-.248 1.393a18.48 18.48 0 01-.28 1.286l-2.774 10.58h-1.288l-2.775-10.58.001.002z" fill="#000"/></svg>
